images/footer__whatsapp.svg

<svg width="24" height="24" viewBox="0 0 24 24" fill="none" xmlns="http://www.w3.org/2000/svg">
<path d="M20.5025 3.49206C19.3968 2.38078 18.0798 1.49967 16.6283 0.90013C15.1768 0.300592 13.6198 -0.00537612 12.0482 7.14833e-05C5.46332 7.14833e-05 0.0964826 5.34005 0.0964826 11.892C0.0964826 13.992 0.651256 16.032 1.68844 17.832L0 24L6.33166 22.344C8.0804 23.292 10.0462 23.796 12.0482 23.796C18.6332 23.796 24 18.456 24 11.904C24 8.72405 22.7578 5.73605 20.5025 3.49206ZM12.0482 21.78C10.2633 21.78 8.51457 21.3 6.98291 20.4L6.6211 20.184L2.85829 21.168L3.8593 17.52L3.61809 17.148C2.62643 15.5724 2.09987 13.7511 2.09849 11.892C2.09849 6.44405 6.5608 2.00407 12.0362 2.00407C14.6894 2.00407 17.1859 3.03606 19.0553 4.90806C19.9809 5.82481 20.7144 6.91525 21.2133 8.11616C21.7123 9.31707 21.9667 10.6046 21.9618 11.904C21.9859 17.352 17.5236 21.78 12.0482 21.78ZM17.4995 14.388C17.198 14.244 15.7266 13.524 15.4613 13.416C15.1839 13.32 14.991 13.272 14.7859 13.56C14.5809 13.86 14.0141 14.532 13.8452 14.724C13.6764 14.928 13.4955 14.952 13.194 14.796C12.8925 14.652 11.9276 14.328 10.794 13.32C9.90151 12.528 9.31055 11.556 9.12965 11.256C8.9608 10.956 9.10553 10.8 9.26231 10.644C9.39497 10.512 9.56382 10.296 9.70854 10.128C9.85327 9.96004 9.91357 9.82804 10.01 9.63604C10.1065 9.43204 10.0583 9.26404 9.98593 9.12004C9.91357 8.97605 9.31055 7.51205 9.06935 6.91205C8.82814 6.33605 8.57487 6.40805 8.39397 6.39605H7.81507C7.61005 6.39605 7.29648 6.46805 7.01909 6.76805C6.75377 7.06805 5.98191 7.78805 5.98191 9.25204C5.98191 10.716 7.05528 12.132 7.2 12.324C7.34472 12.528 9.31055 15.528 12.3015 16.812C13.0131 17.124 13.5678 17.304 14.002 17.436C14.7136 17.664 15.3648 17.628 15.8834 17.556C16.4623 17.472 17.6563 16.836 17.8975 16.14C18.1508 15.444 18.1508 14.856 18.0663 14.724C17.9819 14.592 17.801 14.532 17.4995 14.388Z" fill="#00223C"/>
</svg>

<svg xmlns="http://www.w3.org/2000/svg" width="24" height="24" fill="none"><path fill="#00223C" d="M20.503 3.492A11.842 11.842 0 0 0 16.628.9a11.89 11.89 0 0 0-4.58-.9C5.463 0 .096 5.34.096 11.892c0 2.1.555 4.14 1.592 5.94L0 24l6.332-1.656a12.002 12.002 0 0 0 5.716 1.452c6.585 0 11.952-5.34 11.952-11.892 0-3.18-1.242-6.168-3.497-8.412ZM12.048 21.78c-1.785 0-3.533-.48-5.065-1.38l-.362-.216-3.763.984L3.86 17.52l-.24-.372a9.88 9.88 0 0 1-1.52-5.256c0-5.448 4.462-9.888 9.937-9.888a9.858 9.858 0 0 1 7.02 2.904 9.816 9.816 0 0 1 2.157 3.208c.5 1.201.754 2.489.749 3.788.024 5.448-4.438 9.876-9.914 9.876Zm5.452-7.392c-.302-.144-1.773-.864-2.039-.972-.277-.096-.47-.144-.675.144-.205.3-.772.972-.94 1.164-.17.204-.35.228-.652.072-.302-.144-1.266-.468-2.4-1.476-.892-.792-1.483-1.764-1.664-2.064-.17-.3-.024-.456.132-.612.133-.132.302-.348.447-.516.144-.168.205-.3.301-.492.097-.204.048-.372-.024-.516a98.486 98.486 0 0 1-.917-2.208c-.24-.576-.494-.504-.675-.516h-.579c-.205 0-.519.072-.796.372-.265.3-1.037 1.02-1.037 2.484s1.073 2.88 1.218 3.072c.145.204 2.11 3.204 5.102 4.488.711.312 1.266.492 1.7.624.712.228 1.363.192 1.881.12.58-.084 1.773-.72 2.015-1.416.253-.696.253-1.284.168-1.416-.084-.132-.265-.192-.566-.336Z"/></svg>
